X:0406
T:My Father said that he would hire to me a man.
N:[Aird] NB. The Notes mark'd thus x are expresst by a Clap of the hand.
M:C
L:1/8
Q:1/4=100 "Maestosa"
I: :: ::
Z:Jack Campin * www.campin.me.uk * 2009
K:D
A|(Ad) .d.d .d2 (f>a)|(gf)(ed) B2 (c>d)|    (e<c) .A2        e<c .A2 |    (d>e)(f>g)    a3   ::
f|(g>f)(ga)  b2  d'>b|(afTed)  e2 (d>e)|"_x".fz   (d>e) "_x".fz   d>e|"_x"(f<d) B2 "_x"(e<c)A2|
   d>ef>g    a<f d2  | b2 g>b  a<(fd>e)|    .A2  (Tc2{B/c/}) d3     :|

